images/3233735.svg

<?xml version="1.0" encoding="UTF-8"?>
<svg xmlns="http://www.w3.org/2000/svg" xmlns:xlink="http://www.w3.org/1999/xlink" width="300pt" height="300pt" viewBox="0 0 300 300" version="1.1">
<defs>
<g>
<symbol overflow="visible" id="glyph0-0">
<path style="stroke:none;" d="M 0.546875 1.9375 L 0.546875 -7.75 L 6.046875 -7.75 L 6.046875 1.9375 Z M 1.171875 1.328125 L 5.4375 1.328125 L 5.4375 -7.140625 L 1.171875 -7.140625 Z M 1.171875 1.328125 "/>
</symbol>
<symbol overflow="visible" id="glyph0-1">
<path style="stroke:none;" d="M 1.078125 -8.015625 L 2.546875 -8.015625 L 6.09375 -1.3125 L 6.09375 -8.015625 L 7.15625 -8.015625 L 7.15625 0 L 5.6875 0 L 2.125 -6.703125 L 2.125 0 L 1.078125 0 Z M 1.078125 -8.015625 "/>
</symbol>
<symbol overflow="visible" id="glyph0-2">
<path style="stroke:none;" d="M 4.328125 -7.28125 C 3.546875 -7.28125 2.921875 -6.984375 2.453125 -6.390625 C 1.992188 -5.804688 1.765625 -5.007812 1.765625 -4 C 1.765625 -2.988281 1.992188 -2.1875 2.453125 -1.59375 C 2.921875 -1.007812 3.546875 -0.71875 4.328125 -0.71875 C 5.117188 -0.71875 5.742188 -1.007812 6.203125 -1.59375 C 6.660156 -2.1875 6.890625 -2.988281 6.890625 -4 C 6.890625 -5.007812 6.660156 -5.804688 6.203125 -6.390625 C 5.742188 -6.984375 5.117188 -7.28125 4.328125 -7.28125 Z M 4.328125 -8.171875 C 5.453125 -8.171875 6.351562 -7.789062 7.03125 -7.03125 C 7.707031 -6.28125 8.046875 -5.269531 8.046875 -4 C 8.046875 -2.738281 7.707031 -1.726562 7.03125 -0.96875 C 6.351562 -0.21875 5.453125 0.15625 4.328125 0.15625 C 3.203125 0.15625 2.300781 -0.21875 1.625 -0.96875 C 0.957031 -1.71875 0.625 -2.726562 0.625 -4 C 0.625 -5.269531 0.957031 -6.28125 1.625 -7.03125 C 2.300781 -7.789062 3.203125 -8.171875 4.328125 -8.171875 Z M 4.328125 -8.171875 "/>
</symbol>
</g>
</defs>
<g id="surface50953">
<rect x="0" y="0" width="300" height="300" style="fill:rgb(100%,100%,100%);fill-opacity:1;stroke:none;"/>
<path style="fill:none;stroke-width:1.2;stroke-linecap:butt;stroke-linejoin:miter;stroke:rgb(0%,0%,0%);stroke-opacity:1;stroke-miterlimit:10;" d="M 105.609375 130.789062 L 92.039062 129.347656 "/>
<path style="fill:none;stroke-width:1.2;stroke-linecap:butt;stroke-linejoin:miter;stroke:rgb(0%,0%,100%);stroke-opacity:1;stroke-miterlimit:10;" d="M 92.039062 129.347656 L 78.464844 127.90625 "/>
<path style="fill:none;stroke-width:1.2;stroke-linecap:butt;stroke-linejoin:miter;stroke:rgb(0%,0%,100%);stroke-opacity:1;stroke-miterlimit:10;" d="M 78.464844 127.90625 L 71.652344 116.078125 "/>
<path style="fill:none;stroke-width:1.2;stroke-linecap:butt;stroke-linejoin:miter;stroke:rgb(0%,0%,0%);stroke-opacity:1;stroke-miterlimit:10;" d="M 71.652344 116.078125 L 64.84375 104.25 "/>
<path style="fill:none;stroke-width:1.2;stroke-linecap:butt;stroke-linejoin:miter;stroke:rgb(0%,0%,0%);stroke-opacity:1;stroke-miterlimit:10;" d="M 60.175781 148.171875 L 69.320312 138.039062 "/>
<path style="fill:none;stroke-width:1.2;stroke-linecap:butt;stroke-linejoin:miter;stroke:rgb(0%,0%,100%);stroke-opacity:1;stroke-miterlimit:10;" d="M 69.320312 138.039062 L 78.464844 127.90625 "/>
<path style=" stroke:none;fill-rule:nonzero;fill:rgb(100%,100%,100%);fill-opacity:1;" d="M 74.464844 121.40625 L 82.464844 121.40625 L 82.464844 134.40625 L 74.464844 134.40625 Z M 74.464844 121.40625 "/>
<g style="fill:rgb(0%,0%,100%);fill-opacity:1;">
  <use xlink:href="#glyph0-1" x="74.464844" y="131.307617"/>
</g>
<path style="fill:none;stroke-width:1.2;stroke-linecap:butt;stroke-linejoin:miter;stroke:rgb(0%,0%,0%);stroke-opacity:1;stroke-miterlimit:10;" d="M 64.84375 104.25 L 38.132812 109.894531 "/>
<path style="fill:none;stroke-width:1.2;stroke-linecap:butt;stroke-linejoin:miter;stroke:rgb(0%,0%,0%);stroke-opacity:1;stroke-miterlimit:10;" d="M 63.5 111.097656 L 42.132812 115.613281 "/>
<path style="fill:none;stroke-width:1.2;stroke-linecap:butt;stroke-linejoin:miter;stroke:rgb(0%,0%,0%);stroke-opacity:1;stroke-miterlimit:10;" d="M 38.132812 109.894531 L 35.25 137.039062 "/>
<path style="fill:none;stroke-width:1.2;stroke-linecap:butt;stroke-linejoin:miter;stroke:rgb(0%,0%,0%);stroke-opacity:1;stroke-miterlimit:10;" d="M 35.25 137.039062 L 60.175781 148.171875 "/>
<path style="fill:none;stroke-width:1.2;stroke-linecap:butt;stroke-linejoin:miter;stroke:rgb(0%,0%,0%);stroke-opacity:1;stroke-miterlimit:10;" d="M 40.363281 132.289062 L 60.300781 141.191406 "/>
<path style="fill:none;stroke-width:1.2;stroke-linecap:butt;stroke-linejoin:miter;stroke:rgb(0%,0%,0%);stroke-opacity:1;stroke-miterlimit:10;" d="M 60.175781 148.171875 L 65.820312 174.878906 "/>
<path style="fill:none;stroke-width:1.2;stroke-linecap:butt;stroke-linejoin:miter;stroke:rgb(0%,0%,0%);stroke-opacity:1;stroke-miterlimit:10;" d="M 63.675781 172.488281 L 53.519531 181.613281 "/>
<path style="fill:none;stroke-width:1.2;stroke-linecap:butt;stroke-linejoin:miter;stroke:rgb(100%,0%,0%);stroke-opacity:1;stroke-miterlimit:10;" d="M 53.519531 181.613281 L 43.367188 190.734375 "/>
<path style="fill:none;stroke-width:1.2;stroke-linecap:butt;stroke-linejoin:miter;stroke:rgb(0%,0%,0%);stroke-opacity:1;stroke-miterlimit:10;" d="M 67.96875 177.269531 L 57.8125 186.390625 "/>
<path style="fill:none;stroke-width:1.2;stroke-linecap:butt;stroke-linejoin:miter;stroke:rgb(100%,0%,0%);stroke-opacity:1;stroke-miterlimit:10;" d="M 57.8125 186.390625 L 47.660156 195.511719 "/>
<path style="fill:none;stroke-width:1.2;stroke-linecap:butt;stroke-linejoin:miter;stroke:rgb(0%,0%,0%);stroke-opacity:1;stroke-miterlimit:10;" d="M 65.820312 174.878906 L 78.796875 179.113281 "/>
<path style="fill:none;stroke-width:1.2;stroke-linecap:butt;stroke-linejoin:miter;stroke:rgb(0%,0%,100%);stroke-opacity:1;stroke-miterlimit:10;" d="M 78.796875 179.113281 L 91.773438 183.34375 "/>
<path style=" stroke:none;fill-rule:nonzero;fill:rgb(100%,100%,100%);fill-opacity:1;" d="M 36.515625 186.621094 L 45.515625 186.621094 L 45.515625 199.621094 L 36.515625 199.621094 Z M 36.515625 186.621094 "/>
<g style="fill:rgb(100%,0%,0%);fill-opacity:1;">
  <use xlink:href="#glyph0-2" x="36.515625" y="196.522461"/>
</g>
<path style="fill:none;stroke-width:1.2;stroke-linecap:butt;stroke-linejoin:miter;stroke:rgb(0%,0%,100%);stroke-opacity:1;stroke-miterlimit:10;" d="M 91.773438 183.34375 L 94.597656 196.699219 "/>
<path style="fill:none;stroke-width:1.2;stroke-linecap:butt;stroke-linejoin:miter;stroke:rgb(0%,0%,0%);stroke-opacity:1;stroke-miterlimit:10;" d="M 94.597656 196.699219 L 97.417969 210.050781 "/>
<path style="fill:none;stroke-width:1.2;stroke-linecap:butt;stroke-linejoin:miter;stroke:rgb(0%,0%,0%);stroke-opacity:1;stroke-miterlimit:10;" d="M 112.082031 165.101562 L 101.925781 174.222656 "/>
<path style="fill:none;stroke-width:1.2;stroke-linecap:butt;stroke-linejoin:miter;stroke:rgb(0%,0%,100%);stroke-opacity:1;stroke-miterlimit:10;" d="M 101.925781 174.222656 L 91.773438 183.34375 "/>
<path style=" stroke:none;fill-rule:nonzero;fill:rgb(100%,100%,100%);fill-opacity:1;" d="M 87.773438 176.84375 L 95.773438 176.84375 L 95.773438 189.84375 L 87.773438 189.84375 Z M 87.773438 176.84375 "/>
<g style="fill:rgb(0%,0%,100%);fill-opacity:1;">
  <use xlink:href="#glyph0-1" x="87.773438" y="186.745117"/>
</g>
<path style="fill:none;stroke-width:1.2;stroke-linecap:butt;stroke-linejoin:miter;stroke:rgb(0%,0%,0%);stroke-opacity:1;stroke-miterlimit:10;" d="M 97.417969 210.050781 L 123.371094 218.515625 "/>
<path style="fill:none;stroke-width:1.2;stroke-linecap:butt;stroke-linejoin:miter;stroke:rgb(0%,0%,0%);stroke-opacity:1;stroke-miterlimit:10;" d="M 123.371094 218.515625 L 143.679688 200.273438 "/>
<path style="fill:none;stroke-width:1;stroke-linecap:butt;stroke-linejoin:miter;stroke:rgb(0%,0%,0%);stroke-opacity:1;stroke-miterlimit:10;" d="M 138.035156 173.566406 L 138.035156 173.566406 M 138.132812 176.5625 L 139.15625 176.347656 M 138.234375 179.5625 L 140.277344 179.132812 M 138.335938 182.5625 L 141.398438 181.914062 M 138.4375 185.558594 L 142.519531 184.695312 M 138.539062 188.558594 L 143.640625 187.480469 M 138.640625 191.554688 L 144.761719 190.261719 M 138.738281 194.554688 L 145.882812 193.042969 M 138.839844 197.550781 L 147.003906 195.828125 M 138.941406 200.550781 L 148.125 198.609375 M 138.964844 201.269531 L 148.390625 199.277344 "/>
<path style="fill:none;stroke-width:1.2;stroke-linecap:butt;stroke-linejoin:miter;stroke:rgb(0%,0%,0%);stroke-opacity:1;stroke-miterlimit:10;" d="M 138.035156 173.566406 L 112.082031 165.101562 "/>
<path style="fill:none;stroke-width:1.2;stroke-linecap:butt;stroke-linejoin:miter;stroke:rgb(0%,0%,0%);stroke-opacity:1;stroke-miterlimit:10;" d="M 138.035156 173.566406 L 135.210938 146.414062 "/>
<path style="fill:none;stroke-width:1.2;stroke-linecap:butt;stroke-linejoin:miter;stroke:rgb(0%,0%,0%);stroke-opacity:1;stroke-miterlimit:10;" d="M 164.730469 179.269531 L 138.035156 173.566406 "/>
<path style="fill:none;stroke-width:1.2;stroke-linecap:butt;stroke-linejoin:miter;stroke:rgb(0%,0%,0%);stroke-opacity:1;stroke-miterlimit:10;" d="M 135.210938 146.414062 L 160.160156 135.339844 "/>
<path style="fill:none;stroke-width:1.2;stroke-linecap:butt;stroke-linejoin:miter;stroke:rgb(0%,0%,0%);stroke-opacity:1;stroke-miterlimit:10;" d="M 160.160156 135.339844 L 169.285156 145.492188 "/>
<path style="fill:none;stroke-width:1.2;stroke-linecap:butt;stroke-linejoin:miter;stroke:rgb(0%,0%,100%);stroke-opacity:1;stroke-miterlimit:10;" d="M 169.285156 145.492188 L 178.40625 155.644531 "/>
<path style="fill:none;stroke-width:1.2;stroke-linecap:butt;stroke-linejoin:miter;stroke:rgb(0%,0%,100%);stroke-opacity:1;stroke-miterlimit:10;" d="M 178.40625 155.644531 L 171.566406 167.457031 "/>
<path style="fill:none;stroke-width:1.2;stroke-linecap:butt;stroke-linejoin:miter;stroke:rgb(0%,0%,0%);stroke-opacity:1;stroke-miterlimit:10;" d="M 171.566406 167.457031 L 164.730469 179.269531 "/>
<path style="fill:none;stroke-width:1.2;stroke-linecap:butt;stroke-linejoin:miter;stroke:rgb(0%,0%,100%);stroke-opacity:1;stroke-miterlimit:10;" d="M 178.40625 155.644531 L 191.980469 154.234375 "/>
<path style="fill:none;stroke-width:1.2;stroke-linecap:butt;stroke-linejoin:miter;stroke:rgb(0%,0%,0%);stroke-opacity:1;stroke-miterlimit:10;" d="M 191.980469 154.234375 L 205.558594 152.824219 "/>
<path style=" stroke:none;fill-rule:nonzero;fill:rgb(100%,100%,100%);fill-opacity:1;" d="M 174.40625 149.144531 L 182.40625 149.144531 L 182.40625 162.144531 L 174.40625 162.144531 Z M 174.40625 149.144531 "/>
<g style="fill:rgb(0%,0%,100%);fill-opacity:1;">
  <use xlink:href="#glyph0-1" x="174.40625" y="159.045898"/>
</g>
<path style="fill:none;stroke-width:1.2;stroke-linecap:butt;stroke-linejoin:miter;stroke:rgb(0%,0%,0%);stroke-opacity:1;stroke-miterlimit:10;" d="M 205.558594 152.824219 L 221.578125 174.925781 "/>
<path style="fill:none;stroke-width:1.2;stroke-linecap:butt;stroke-linejoin:miter;stroke:rgb(0%,0%,0%);stroke-opacity:1;stroke-miterlimit:10;" d="M 205.558594 152.824219 L 216.6875 127.898438 "/>
<path style="fill:none;stroke-width:1.2;stroke-linecap:butt;stroke-linejoin:miter;stroke:rgb(0%,0%,0%);stroke-opacity:1;stroke-miterlimit:10;" d="M 221.578125 174.925781 L 210.445312 199.851562 "/>
<path style="fill:none;stroke-width:1.2;stroke-linecap:butt;stroke-linejoin:miter;stroke:rgb(0%,0%,0%);stroke-opacity:1;stroke-miterlimit:10;" d="M 226.328125 180.039062 L 217.425781 199.976562 "/>
<path style="fill:none;stroke-width:1.2;stroke-linecap:butt;stroke-linejoin:miter;stroke:rgb(0%,0%,0%);stroke-opacity:1;stroke-miterlimit:10;" d="M 248.730469 172.101562 L 221.578125 174.925781 "/>
<path style="fill:none;stroke-width:1.2;stroke-linecap:butt;stroke-linejoin:miter;stroke:rgb(0%,0%,0%);stroke-opacity:1;stroke-miterlimit:10;" d="M 210.445312 199.851562 L 226.46875 221.953125 "/>
<path style="fill:none;stroke-width:1.2;stroke-linecap:butt;stroke-linejoin:miter;stroke:rgb(0%,0%,0%);stroke-opacity:1;stroke-miterlimit:10;" d="M 226.46875 221.953125 L 253.617188 219.132812 "/>
<path style="fill:none;stroke-width:1.2;stroke-linecap:butt;stroke-linejoin:miter;stroke:rgb(0%,0%,0%);stroke-opacity:1;stroke-miterlimit:10;" d="M 228.519531 215.285156 L 250.238281 213.023438 "/>
<path style="fill:none;stroke-width:1.2;stroke-linecap:butt;stroke-linejoin:miter;stroke:rgb(0%,0%,0%);stroke-opacity:1;stroke-miterlimit:10;" d="M 253.617188 219.132812 L 264.75 194.207031 "/>
<path style="fill:none;stroke-width:1.2;stroke-linecap:butt;stroke-linejoin:miter;stroke:rgb(0%,0%,0%);stroke-opacity:1;stroke-miterlimit:10;" d="M 264.75 194.207031 L 248.730469 172.101562 "/>
<path style="fill:none;stroke-width:1.2;stroke-linecap:butt;stroke-linejoin:miter;stroke:rgb(0%,0%,0%);stroke-opacity:1;stroke-miterlimit:10;" d="M 257.949219 195.765625 L 245.128906 178.082031 "/>
<path style="fill:none;stroke-width:1.2;stroke-linecap:butt;stroke-linejoin:miter;stroke:rgb(0%,0%,0%);stroke-opacity:1;stroke-miterlimit:10;" d="M 216.6875 127.898438 L 243.839844 125.074219 "/>
<path style="fill:none;stroke-width:1.2;stroke-linecap:butt;stroke-linejoin:miter;stroke:rgb(0%,0%,0%);stroke-opacity:1;stroke-miterlimit:10;" d="M 218.738281 121.226562 L 240.460938 118.96875 "/>
<path style="fill:none;stroke-width:1.2;stroke-linecap:butt;stroke-linejoin:miter;stroke:rgb(0%,0%,0%);stroke-opacity:1;stroke-miterlimit:10;" d="M 200.667969 105.792969 L 216.6875 127.898438 "/>
<path style="fill:none;stroke-width:1.2;stroke-linecap:butt;stroke-linejoin:miter;stroke:rgb(0%,0%,0%);stroke-opacity:1;stroke-miterlimit:10;" d="M 243.839844 125.074219 L 254.972656 100.148438 "/>
<path style="fill:none;stroke-width:1.2;stroke-linecap:butt;stroke-linejoin:miter;stroke:rgb(0%,0%,0%);stroke-opacity:1;stroke-miterlimit:10;" d="M 254.972656 100.148438 L 238.949219 78.046875 "/>
<path style="fill:none;stroke-width:1.2;stroke-linecap:butt;stroke-linejoin:miter;stroke:rgb(0%,0%,0%);stroke-opacity:1;stroke-miterlimit:10;" d="M 248.167969 101.707031 L 235.351562 84.027344 "/>
<path style="fill:none;stroke-width:1.2;stroke-linecap:butt;stroke-linejoin:miter;stroke:rgb(0%,0%,0%);stroke-opacity:1;stroke-miterlimit:10;" d="M 238.949219 78.046875 L 211.796875 80.867188 "/>
<path style="fill:none;stroke-width:1.2;stroke-linecap:butt;stroke-linejoin:miter;stroke:rgb(0%,0%,0%);stroke-opacity:1;stroke-miterlimit:10;" d="M 211.796875 80.867188 L 200.667969 105.792969 "/>
<path style="fill:none;stroke-width:1.2;stroke-linecap:butt;stroke-linejoin:miter;stroke:rgb(0%,0%,0%);stroke-opacity:1;stroke-miterlimit:10;" d="M 216.550781 85.980469 L 207.644531 105.921875 "/>
</g>
</svg>

<svg xmlns="http://www.w3.org/2000/svg" xmlns:xlink="http://www.w3.org/1999/xlink" width="300pt" height="300pt" viewBox="0 0 300 300"><defs><symbol overflow="visible"><path d="M.547 1.938V-7.75h5.5v9.688zm.625-.61h4.266v-8.47H1.171zm0 0"/></symbol><symbol overflow="visible" id="a"><path d="M1.078-8.016h1.47l3.546 6.704v-6.704h1.062V0H5.688L2.124-6.703V0H1.078zm0 0"/></symbol><symbol overflow="visible" id="b"><path d="M4.328-7.28c-.78 0-1.406.296-1.875.89-.46.585-.687 1.382-.687 2.39 0 1.012.226 1.813.687 2.406.47.586 1.094.875 1.875.875.79 0 1.414-.288 1.875-.874.457-.593.688-1.394.688-2.406 0-1.008-.23-1.805-.687-2.39-.46-.594-1.086-.89-1.875-.89zm0-.892c1.125 0 2.024.383 2.703 1.14C7.708-6.28 8.048-5.27 8.048-4c0 1.262-.34 2.273-1.016 3.03C6.353-.22 5.454.157 4.33.157S2.3-.22 1.625-.97c-.668-.75-1-1.757-1-3.03 0-1.27.332-2.28 1-3.03.676-.76 1.578-1.142 2.703-1.142zm0 0"/></symbol></defs><g><path fill="#fff" d="M0 0h300v300H0z"/><path d="M105.61 130.79l-13.57-1.442" stroke-width="1.2" stroke="#000" stroke-miterlimit="10" fill="none"/><path d="M92.04 129.348l-13.575-1.442M78.465 127.906l-6.813-11.828" stroke-width="1.2" stroke="#00f" stroke-miterlimit="10" fill="none"/><path d="M71.652 116.078l-6.808-11.828M60.176 148.172l9.144-10.133" stroke-width="1.2" stroke="#000" stroke-miterlimit="10" fill="none"/><path d="M69.32 138.04l9.145-10.134" stroke-width="1.2" stroke="#00f" stroke-miterlimit="10" fill="none"/><path d="M74.465 121.406h8v13h-8zm0 0" fill="#fff"/><use xlink:href="#a" x="74.465" y="131.308" fill="#00f"/><path d="M64.844 104.25l-26.71 5.645M63.5 111.098l-21.367 4.515M38.133 109.895L35.25 137.04M35.25 137.04l24.926 11.132M40.363 132.29l19.938 8.9M60.176 148.172l5.644 26.707M63.676 172.488l-10.156 9.125" stroke-width="1.2" stroke="#000" stroke-miterlimit="10" fill="none"/><path d="M53.52 181.613l-10.153 9.12" stroke-width="1.2" stroke="#f00" stroke-miterlimit="10" fill="none"/><path d="M67.97 177.27l-10.157 9.12" stroke-width="1.2" stroke="#000" stroke-miterlimit="10" fill="none"/><path d="M57.813 186.39l-10.153 9.122" stroke-width="1.2" stroke="#f00" stroke-miterlimit="10" fill="none"/><path d="M65.82 174.88l12.977 4.233" stroke-width="1.2" stroke="#000" stroke-miterlimit="10" fill="none"/><path d="M78.797 179.113l12.976 4.23" stroke-width="1.2" stroke="#00f" stroke-miterlimit="10" fill="none"/><path d="M36.516 186.62h9v13h-9zm0 0" fill="#fff"/><use xlink:href="#b" x="36.516" y="196.522" fill="#f00"/><path d="M91.773 183.344l2.825 13.355" stroke-width="1.2" stroke="#00f" stroke-miterlimit="10" fill="none"/><path d="M94.598 196.7l2.82 13.35M112.082 165.102l-10.156 9.12" stroke-width="1.2" stroke="#000" stroke-miterlimit="10" fill="none"/><path d="M101.926 174.223l-10.153 9.12" stroke-width="1.2" stroke="#00f" stroke-miterlimit="10" fill="none"/><path d="M87.773 176.844h8v13h-8zm0 0" fill="#fff"/><use xlink:href="#a" x="87.773" y="186.745" fill="#00f"/><path d="M97.418 210.05l25.953 8.466M123.37 218.516l20.31-18.243" stroke-width="1.2" stroke="#000" stroke-miterlimit="10" fill="none"/><path d="M138.035 173.566m.098 2.996l1.023-.214m-.922 3.214l2.043-.43m-1.94 3.43l3.06-.648m-2.96 3.645l4.083-.865m-3.98 3.864l5.1-1.08m-5 4.075l6.122-1.293m-6.024 4.293l7.145-1.512m-7.043 4.508l8.164-1.722m-8.063 4.723l9.185-1.94m-9.16 2.66l9.426-1.993" stroke="#000" stroke-miterlimit="10" fill="none"/><path d="M138.035 173.566l-25.953-8.464M138.035 173.566l-2.824-27.152M164.73 179.27l-26.695-5.704M135.21 146.414l24.95-11.074M160.16 135.34l9.125 10.152" stroke-width="1.2" stroke="#000" stroke-miterlimit="10" fill="none"/><path d="M169.285 145.492l9.12 10.153M178.406 155.645l-6.84 11.812" stroke-width="1.2" stroke="#00f" stroke-miterlimit="10" fill="none"/><path d="M171.566 167.457l-6.836 11.813" stroke-width="1.2" stroke="#000" stroke-miterlimit="10" fill="none"/><path d="M178.406 155.645l13.574-1.41" stroke-width="1.2" stroke="#00f" stroke-miterlimit="10" fill="none"/><path d="M191.98 154.234l13.58-1.41" stroke-width="1.2" stroke="#000" stroke-miterlimit="10" fill="none"/><path d="M174.406 149.145h8v13h-8zm0 0" fill="#fff"/><use xlink:href="#a" x="174.406" y="159.046" fill="#00f"/><path d="M205.56 152.824l16.018 22.102M205.56 152.824l11.127-24.926M221.578 174.926l-11.133 24.926M226.328 180.04l-8.902 19.937M248.73 172.102l-27.152 2.824M210.445 199.852l16.024 22.1M226.47 221.953l27.147-2.82M228.52 215.285l21.718-2.262M253.617 219.133l11.133-24.926M264.75 194.207l-16.02-22.105M257.95 195.766l-12.82-17.684M216.688 127.898l27.152-2.824M218.738 121.227l21.723-2.258M200.668 105.793l16.02 22.105M243.84 125.074l11.133-24.926M254.973 100.148l-16.024-22.1M248.168 101.707l-12.816-17.68M238.95 78.047l-27.153 2.82M211.797 80.867l-11.13 24.926M216.55 85.98l-8.905 19.942" stroke-width="1.2" stroke="#000" stroke-miterlimit="10" fill="none"/></g></svg>
